images/svg/infographic-online.svg

<svg width="90" height="90" viewBox="0 0 90 90" fill="none" xmlns="http://www.w3.org/2000/svg">
<g clip-path="url(#clip0_31_386)">
<path fill-rule="evenodd" clip-rule="evenodd" d="M77.07 81.6635L82.6844 36.2948H87.9018V30.2835H83.4216H77.4103H64.4235L61.7014 8.33643H55.6901L58.4122 30.2835H31.588L34.2534 8.33643H28.2421L25.5199 30.2835H12.5899H6.57854H2.09839V36.2948H7.31578L12.9301 81.6635H18.9415H71.0587H77.07ZM30.2836 40.775L30.794 36.2948H59.1494L59.7165 40.775H65.7279L65.1608 36.2948H76.6163L71.7959 75.5954H18.2043L13.3271 36.2948H24.7827L24.2156 40.775H30.2836Z" fill="url(#paint0_linear_31_386)"/>
<path fill-rule="evenodd" clip-rule="evenodd" d="M34.14 50.189L42.1362 58.5255L56.087 45.4253L60.4538 50.0756L41.9093 67.4858L29.5464 54.5557L34.14 50.189Z" fill="url(#paint1_linear_31_386)"/>
</g>
<defs>
<linearGradient id="paint0_linear_31_386" x1="61.0209" y1="103.043" x2="7.31578" y2="14.4612" gradientUnits="userSpaceOnUse">
<stop stop-color="#28B1A1"/>
<stop offset="0.6" stop-color="#57DA98"/>
<stop offset="1" stop-color="#9AE974"/>
</linearGradient>
<linearGradient id="paint1_linear_31_386" x1="63.8564" y1="72.6465" x2="38.053" y2="39.017" gradientUnits="userSpaceOnUse">
<stop stop-color="#0E42B8"/>
<stop offset="0.568627" stop-color="#1B8CF6"/>
<stop offset="1" stop-color="#65C9FB"/>
</linearGradient>
<clipPath id="clip0_31_386">
<rect width="90" height="90" fill="white"/>
</clipPath>
</defs>
</svg>

<svg width="90" height="90" fill="none" xmlns="http://www.w3.org/2000/svg"><g clip-path="url(#a)" fill-rule="evenodd" clip-rule="evenodd"><path d="m77.07 81.663 5.614-45.368h5.218v-6.012H64.424L61.7 8.337h-6.01l2.721 21.947H31.588l2.665-21.947h-6.01L25.52 30.283H2.099v6.012h5.217l5.614 45.368h64.14zM30.284 40.776l.51-4.48h28.355l.568 4.48h6.01l-.566-4.48h11.455l-4.82 39.3H18.204l-4.877-39.3h11.456l-.567 4.48h6.068z" fill="url(#b)"/><path d="m34.14 50.189 7.996 8.337 13.951-13.1 4.367 4.65-18.545 17.41-12.363-12.93 4.594-4.367z" fill="url(#c)"/></g><defs><linearGradient id="b" x1="61.021" y1="103.043" x2="7.316" y2="14.461" gradientUnits="userSpaceOnUse"><stop stop-color="#28B1A1"/><stop offset=".6" stop-color="#57DA98"/><stop offset="1" stop-color="#9AE974"/></linearGradient><linearGradient id="c" x1="63.856" y1="72.647" x2="38.053" y2="39.017" gradientUnits="userSpaceOnUse"><stop stop-color="#0E42B8"/><stop offset=".569" stop-color="#1B8CF6"/><stop offset="1" stop-color="#65C9FB"/></linearGradient><clipPath id="a"><path fill="#fff" d="M0 0h90v90H0z"/></clipPath></defs></svg>
